X:3
T:Johnny O'Leary's
S:John Williams - Steam
Z:robin.beech@mcgill.ca
R:jig
M:6/8
K:EDor
B3 EGA | B2A BAd | B3EGA | BAG FED |
B3 EGA | B2B BAd | AFD DEF | A2G FED ::
g3 fed | edc d2A | B3EGA | BAG FED |
gbg fed | edc d2B | AFD DEF | A2G FED ::
DEE EFD | EFD EEE | DEE EFG | BAG FED |
EEE EFD | EFD EEE | AFD DEF | A2G FED :|
